public/images/poses-sm/ExtendedSideAngle.svg

<svg width="800" height="900" fill="none" xmlns="http://www.w3.org/2000/svg"><path d="M665.506 440.162c13.609-5.005 49.09-9.138 46.716 30.667-1.506 25.265-.3 62.893 18.439 76.521 18.74 13.626-31.842 33.274-53.447 11.54-21.608-21.735-25.818-55.487-11.935-77.938 13.888-22.456.227-40.79.227-40.79Z" fill="#000" stroke="#000" stroke-width="5" stroke-miterlimit="10"/><path d="M480.469 439.625c8.778-4.39 28.529-10.973 30.723-15.362 2.197-4.389 0-74.615 2.197-92.171 2.194-17.556 8.776-61.447 17.556-85.587 8.778-24.14 17.557-48.28 19.751-65.836 2.193-17.556-4.273-52.669 17.556-52.669 30.839 0-2.194 43.891-4.388 59.253-2.195 15.361-13.166 76.808-17.557 96.559-4.389 19.751-6.584 24.14-4.389 52.669 2.195 28.529 13.166 103.144 13.166 103.144l-26.334 6.583-43.892 6.584-4.389-13.167Z" fill="#fff" stroke="#000" stroke-width="5" stroke-miterlimit="10"/><path d="M480.469 439.625c8.778-4.39 28.529-10.973 30.723-15.362 2.197-4.389 0-74.615 2.197-92.171 2.194-17.556 8.776-61.447 17.556-85.587 8.778-24.14 17.557-48.28 19.751-65.836 2.193-17.556-4.273-52.669 17.556-52.669 30.839 0-2.194 43.891-4.388 59.253-2.195 15.361-13.166 76.808-17.557 96.559-4.389 19.751-6.584 24.14-4.389 52.669 2.195 28.529 13.166 103.144 13.166 103.144l-26.334 6.583-43.892 6.584-4.389-13.167Z" stroke="#000" stroke-width="5" stroke-miterlimit="10"/><path d="M377.323 514.24c-10.973 4.389-57.058 26.335-76.809 41.696-19.751 15.362-43.891 41.697-54.863 48.281-10.973 6.585-46.086 24.139-59.253 32.919-13.167 8.778-72.42 59.253-83.392 65.836-10.973 6.582-32.918 24.139-37.308 30.72-4.389 6.586 13.168 32.92 17.557 35.113 4.389 2.196 26.334 4.389 28.529 0 2.194-4.389-10.973-6.584-13.167-10.973-2.195-4.389-4.39-8.778 0-17.556 4.389-8.778 19.75-17.558 43.89-30.724 24.14-13.167 105.338-48.281 125.089-57.058 19.751-8.778 98.754-37.308 103.143-39.501 0 0 10.973 6.583 39.502 6.583 28.529 0 74.614-4.388 85.586-6.583 10.972-2.195 61.447-10.973 61.447-10.973s-4.389 21.945-2.195 43.892c2.195 21.946 10.974 87.781 10.974 100.948 0 13.168 2.194 19.751 8.777 21.946 6.584 2.196 74.615 2.196 76.808 0 2.196-2.195 4.389-4.389-4.388-8.777-8.778-4.389-24.139-4.388-32.919-6.585-8.779-2.194-19.75-6.584-24.139-13.165-4.39-6.585-2.196-39.502 0-52.67 2.195-13.166 10.972-54.863 13.166-68.031 2.194-13.166 8.777-37.308 4.389-46.085-4.389-8.777-41.696-10.973-54.864-13.167-13.165-2.195-70.223-8.777-70.223-8.777l-26.335 15.362-79.002-52.671Z" fill="#fff" stroke="#000" stroke-width="5" stroke-miterlimit="10"/><path d="M377.323 514.24c-10.973 4.389-57.058 26.335-76.809 41.696-19.751 15.362-43.891 41.697-54.863 48.281-10.973 6.585-46.086 24.139-59.253 32.919-13.167 8.778-72.42 59.253-83.392 65.836-10.973 6.582-32.918 24.139-37.308 30.72-4.389 6.586 13.168 32.92 17.557 35.113 4.389 2.196 26.334 4.389 28.529 0 2.194-4.389-10.973-6.584-13.167-10.973-2.195-4.389-4.39-8.778 0-17.556 4.389-8.778 19.75-17.558 43.89-30.724 24.14-13.167 105.338-48.281 125.089-57.058 19.751-8.778 98.754-37.308 103.143-39.501 0 0 10.973 6.583 39.502 6.583 28.529 0 74.614-4.388 85.586-6.583 10.972-2.195 61.447-10.973 61.447-10.973s-4.389 21.945-2.195 43.892c2.195 21.946 10.974 87.781 10.974 100.948 0 13.168 2.194 19.751 8.777 21.946 6.584 2.196 74.615 2.196 76.808 0 2.196-2.195 4.389-4.389-4.388-8.777-8.778-4.389-24.139-4.388-32.919-6.585-8.779-2.194-19.75-6.584-24.139-13.165-4.39-6.585-2.196-39.502 0-52.67 2.195-13.166 10.972-54.863 13.166-68.031 2.194-13.166 8.777-37.308 4.389-46.085-4.389-8.777-41.696-10.973-54.864-13.167-13.165-2.195-70.223-8.777-70.223-8.777l-26.335 15.362-79.002-52.671Z" stroke="#000" stroke-width="5" stroke-miterlimit="10"/><path d="M587.808 727.818s-13.874 2.902-23.246 0" stroke="#000" stroke-width="5" stroke-miterlimit="10"/><path d="M577.026 505.461c2.196 17.559-4.389 50.475-6.583 70.226-2.197 19.75-6.585 39.5-6.585 59.253 0 19.751 6.585 103.143 10.973 109.727 4.389 6.585 10.973 6.585 21.946 10.974 10.973 4.388 19.751 4.388 24.138 8.777 4.389 4.388 0 4.388-6.583 4.388-6.584 0-39.501 4.389-48.28 0-8.779-4.388-13.168-21.945-21.946-65.835-8.778-43.892-13.167-103.144-13.167-127.282V542.77l-6.584-26.335 15.362-13.166 30.724-2.196 6.585 4.388Z" fill="#fff" stroke="#000" stroke-width="5" stroke-miterlimit="10"/><path d="M577.026 505.461c2.196 17.559-4.389 50.475-6.583 70.226-2.197 19.75-6.585 39.5-6.585 59.253 0 19.751 6.585 103.143 10.973 109.727 4.389 6.585 10.973 6.585 21.946 10.974 10.973 4.388 19.751 4.388 24.138 8.777 4.389 4.388 0 4.388-6.583 4.388-6.584 0-39.501 4.389-48.28 0-8.779-4.388-13.168-21.945-21.946-65.835-8.778-43.892-13.167-103.144-13.167-127.282V542.77l-6.584-26.335 15.362-13.166 30.724-2.196 6.585 4.388Z" stroke="#000" stroke-width="5" stroke-miterlimit="10"/><path d="M377.324 514.239c10.973-4.389 54.864-41.696 65.836-50.474 10.973-8.777 37.308-24.139 37.308-24.139s21.946 2.195 41.696 2.195c19.751 0 32.92-2.195 32.92-2.195s0 6.584 6.583 8.777c6.584 2.196 21.946 0 32.919-4.388 10.972-4.389 30.723 17.557 30.723 17.557s-43.891 15.362-50.473 26.335c0 0-2.196 2.194 0 8.778 2.195 6.584 2.195 8.776 2.195 8.776s-19.751-4.388-32.919 4.389c-13.166 8.778-13.166 26.335-13.166 30.724 0 0-8.778 8.778-28.529 13.166-19.75 4.389-32.919 4.389-46.085 13.166l-79.008-52.667Z" fill="#fff" stroke="#000" stroke-width="5" stroke-miterlimit="10"/><path d="M377.324 514.239c10.973-4.389 54.864-41.696 65.836-50.474 10.973-8.777 37.308-24.139 37.308-24.139s21.946 2.195 41.696 2.195c19.751 0 32.92-2.195 32.92-2.195s0 6.584 6.583 8.777c6.584 2.196 21.946 0 32.919-4.388 10.972-4.389 30.723 17.557 30.723 17.557s-43.891 15.362-50.473 26.335c0 0-2.196 2.194 0 8.778 2.195 6.584 2.195 8.776 2.195 8.776s-19.751-4.388-32.919 4.389c-13.166 8.778-13.166 26.335-13.166 30.724 0 0-8.778 8.778-28.529 13.166-19.75 4.389-32.919 4.389-46.085 13.166l-79.008-52.667Z" stroke="#000" stroke-width="5" stroke-miterlimit="10"/><path d="M628.066 460.497c7.944.062 12.297-6.123 20.494-9.156 13.017-4.809 16.73-25.972 8.438-39.08-10.949-17.31-75.294 17.288-70.649 28.256 2.752 6.494 14.132 14.801 28.82 17.278 4.725.794 12.897 2.702 12.897 2.702Z" fill="#fff" stroke="#000" stroke-width="5" stroke-miterlimit="10"/><path d="M628.066 460.497c7.944.062 12.297-6.123 20.494-9.156 13.017-4.809 16.73-25.972 8.438-39.08-10.949-17.31-75.294 17.288-70.649 28.256 2.752 6.494 14.132 14.801 28.82 17.278 4.725.794 12.897 2.702 12.897 2.702Z" stroke="#000" stroke-width="5" stroke-miterlimit="10"/><path d="M645.393 408.918c-11.07 6.457-26.758 25.966-15.266 37.984 12.921 13.506-.117 12.319-3.783 12.733-3.665.417-13.563-4.137-13.531-2.09.029 2.049 20.344 17.366 37.689 10.527 17.341-6.836 21.555-17.228 21.87-28.372.313-11.145-6.607-25.249-16.414-30.731-9.803-5.482-10.565-.051-10.565-.051Z" fill="#000" stroke="#000" stroke-width="5" stroke-miterlimit="10"/><path d="M555.904 443.191c-9.601 9.602-11.075 21.288-5.212 31.548 8.777 15.361 23.184 17.274 23.184 17.274M456.328 566.909c-4.388 2.196-10.973 6.585-10.973 6.585M109.945 698.048c4.149 9.312 15.049 21.257 15.049 21.257" stroke="#000" stroke-width="5" stroke-miterlimit="10"/></svg>

<svg width="800" height="900" viewBox="0 0 800 900" fill="none" xmlns="http://www.w3.org/2000/svg">
<path d="M665.506 440.162C679.115 435.157 714.596 431.024 712.222 470.829C710.716 496.094 711.922 533.722 730.661 547.35C749.401 560.976 698.819 580.624 677.214 558.89C655.606 537.155 651.396 503.403 665.279 480.952C679.167 458.496 665.506 440.162 665.506 440.162Z" fill="black" stroke="black" stroke-width="5" stroke-miterlimit="10"/>
<path d="M480.469 439.625C489.247 435.235 508.998 428.652 511.192 424.263C513.389 419.874 511.192 349.648 513.389 332.092C515.583 314.536 522.165 270.645 530.945 246.505C539.723 222.365 548.502 198.225 550.696 180.669C552.889 163.113 546.423 128 568.252 128C599.091 128 566.058 171.891 563.864 187.253C561.669 202.614 550.698 264.061 546.307 283.812C541.918 303.563 539.723 307.952 541.918 336.481C544.113 365.01 555.084 439.625 555.084 439.625L528.75 446.208L484.858 452.792L480.469 439.625Z" fill="white" stroke="black" stroke-width="5" stroke-miterlimit="10"/>
<path d="M480.469 439.625C489.247 435.235 508.998 428.652 511.192 424.263C513.389 419.874 511.192 349.648 513.389 332.092C515.583 314.536 522.165 270.645 530.945 246.505C539.723 222.365 548.502 198.225 550.696 180.669C552.889 163.113 546.423 128 568.252 128C599.091 128 566.058 171.891 563.864 187.253C561.669 202.614 550.698 264.061 546.307 283.812C541.918 303.563 539.723 307.952 541.918 336.481C544.113 365.01 555.084 439.625 555.084 439.625L528.75 446.208L484.858 452.792L480.469 439.625Z" stroke="black" stroke-width="5" stroke-miterlimit="10"/>
<path d="M377.323 514.24C366.35 518.629 320.265 540.575 300.514 555.936C280.763 571.298 256.623 597.633 245.651 604.217C234.678 610.802 199.565 628.356 186.398 637.136C173.231 645.914 113.978 696.389 103.006 702.972C92.033 709.554 70.0876 727.111 65.6985 733.692C61.3094 740.278 78.8658 766.612 83.2548 768.805C87.6439 771.001 109.589 773.194 111.784 768.805C113.978 764.416 100.811 762.221 98.6166 757.832C96.4221 753.443 94.2275 749.054 98.6166 740.276C103.006 731.498 118.367 722.718 142.507 709.552C166.647 696.385 247.845 661.271 267.596 652.494C287.347 643.716 366.35 615.186 370.739 612.993C370.739 612.993 381.712 619.576 410.241 619.576C438.77 619.576 484.855 615.188 495.827 612.993C506.799 610.798 557.274 602.02 557.274 602.02C557.274 602.02 552.885 623.965 555.079 645.912C557.274 667.858 566.053 733.693 566.053 746.86C566.053 760.028 568.247 766.611 574.83 768.806C581.414 771.002 649.445 771.002 651.638 768.806C653.834 766.611 656.027 764.417 647.25 760.029C638.472 755.64 623.111 755.641 614.331 753.444C605.552 751.25 594.581 746.86 590.192 740.279C585.802 733.694 587.996 700.777 590.192 687.609C592.387 674.443 601.164 632.746 603.358 619.578C605.552 606.412 612.135 582.27 607.747 573.493C603.358 564.716 566.051 562.52 552.883 560.326C539.718 558.131 482.66 551.549 482.66 551.549L456.325 566.911L377.323 514.24Z" fill="white" stroke="black" stroke-width="5" stroke-miterlimit="10"/>
<path d="M377.323 514.24C366.35 518.629 320.265 540.575 300.514 555.936C280.763 571.298 256.623 597.633 245.651 604.217C234.678 610.802 199.565 628.356 186.398 637.136C173.231 645.914 113.978 696.389 103.006 702.972C92.033 709.554 70.0876 727.111 65.6985 733.692C61.3094 740.278 78.8658 766.612 83.2548 768.805C87.6439 771.001 109.589 773.194 111.784 768.805C113.978 764.416 100.811 762.221 98.6166 757.832C96.4221 753.443 94.2275 749.054 98.6166 740.276C103.006 731.498 118.367 722.718 142.507 709.552C166.647 696.385 247.845 661.271 267.596 652.494C287.347 643.716 366.35 615.186 370.739 612.993C370.739 612.993 381.712 619.576 410.241 619.576C438.77 619.576 484.855 615.188 495.827 612.993C506.799 610.798 557.274 602.02 557.274 602.02C557.274 602.02 552.885 623.965 555.079 645.912C557.274 667.858 566.053 733.693 566.053 746.86C566.053 760.028 568.247 766.611 574.83 768.806C581.414 771.002 649.445 771.002 651.638 768.806C653.834 766.611 656.027 764.417 647.25 760.029C638.472 755.64 623.111 755.641 614.331 753.444C605.552 751.25 594.581 746.86 590.192 740.279C585.802 733.694 587.996 700.777 590.192 687.609C592.387 674.443 601.164 632.746 603.358 619.578C605.552 606.412 612.135 582.27 607.747 573.493C603.358 564.716 566.051 562.52 552.883 560.326C539.718 558.131 482.66 551.549 482.66 551.549L456.325 566.911L377.323 514.24Z" stroke="black" stroke-width="5" stroke-miterlimit="10"/>
<path d="M587.808 727.818C587.808 727.818 573.934 730.72 564.562 727.818" stroke="black" stroke-width="5" stroke-miterlimit="10"/>
<path d="M577.026 505.461C579.222 523.02 572.637 555.936 570.443 575.687C568.246 595.437 563.858 615.187 563.858 634.94C563.858 654.691 570.443 738.083 574.831 744.667C579.22 751.252 585.804 751.252 596.777 755.641C607.75 760.029 616.528 760.029 620.915 764.418C625.304 768.806 620.915 768.806 614.332 768.806C607.748 768.806 574.831 773.195 566.052 768.806C557.273 764.418 552.884 746.861 544.106 702.971C535.328 659.079 530.939 599.827 530.939 575.689V542.77L524.355 516.435L539.717 503.269L570.441 501.073L577.026 505.461Z" fill="white" stroke="black" stroke-width="5" stroke-miterlimit="10"/>
<path d="M577.026 505.461C579.222 523.02 572.637 555.936 570.443 575.687C568.246 595.437 563.858 615.187 563.858 634.94C563.858 654.691 570.443 738.083 574.831 744.667C579.22 751.252 585.804 751.252 596.777 755.641C607.75 760.029 616.528 760.029 620.915 764.418C625.304 768.806 620.915 768.806 614.332 768.806C607.748 768.806 574.831 773.195 566.052 768.806C557.273 764.418 552.884 746.861 544.106 702.971C535.328 659.079 530.939 599.827 530.939 575.689V542.77L524.355 516.435L539.717 503.269L570.441 501.073L577.026 505.461Z" stroke="black" stroke-width="5" stroke-miterlimit="10"/>
<path d="M377.324 514.239C388.297 509.85 432.188 472.543 443.16 463.765C454.133 454.988 480.468 439.626 480.468 439.626C480.468 439.626 502.414 441.821 522.164 441.821C541.915 441.821 555.084 439.626 555.084 439.626C555.084 439.626 555.084 446.21 561.667 448.403C568.251 450.599 583.613 448.403 594.586 444.015C605.558 439.626 625.309 461.572 625.309 461.572C625.309 461.572 581.418 476.934 574.836 487.907C574.836 487.907 572.64 490.101 574.836 496.685C577.031 503.269 577.031 505.461 577.031 505.461C577.031 505.461 557.28 501.073 544.112 509.85C530.946 518.628 530.946 536.185 530.946 540.574C530.946 540.574 522.168 549.352 502.417 553.74C482.667 558.129 469.498 558.129 456.332 566.906L377.324 514.239Z" fill="white" stroke="black" stroke-width="5" stroke-miterlimit="10"/>
<path d="M377.324 514.239C388.297 509.85 432.188 472.543 443.16 463.765C454.133 454.988 480.468 439.626 480.468 439.626C480.468 439.626 502.414 441.821 522.164 441.821C541.915 441.821 555.084 439.626 555.084 439.626C555.084 439.626 555.084 446.21 561.667 448.403C568.251 450.599 583.613 448.403 594.586 444.015C605.558 439.626 625.309 461.572 625.309 461.572C625.309 461.572 581.418 476.934 574.836 487.907C574.836 487.907 572.64 490.101 574.836 496.685C577.031 503.269 577.031 505.461 577.031 505.461C577.031 505.461 557.28 501.073 544.112 509.85C530.946 518.628 530.946 536.185 530.946 540.574C530.946 540.574 522.168 549.352 502.417 553.74C482.667 558.129 469.498 558.129 456.332 566.906L377.324 514.239Z" stroke="black" stroke-width="5" stroke-miterlimit="10"/>
<path d="M628.066 460.497C636.01 460.559 640.363 454.374 648.56 451.341C661.577 446.532 665.29 425.369 656.998 412.261C646.049 394.951 581.704 429.549 586.349 440.517C589.101 447.011 600.481 455.318 615.169 457.795C619.894 458.589 628.066 460.497 628.066 460.497Z" fill="white" stroke="black" stroke-width="5" stroke-miterlimit="10"/>
<path d="M628.066 460.497C636.01 460.559 640.363 454.374 648.56 451.341C661.577 446.532 665.29 425.369 656.998 412.261C646.049 394.951 581.704 429.549 586.349 440.517C589.101 447.011 600.481 455.318 615.169 457.795C619.894 458.589 628.066 460.497 628.066 460.497Z" stroke="black" stroke-width="5" stroke-miterlimit="10"/>
<path d="M645.393 408.918C634.323 415.375 618.635 434.884 630.127 446.902C643.048 460.408 630.01 459.221 626.344 459.635C622.679 460.052 612.781 455.498 612.813 457.545C612.842 459.594 633.157 474.911 650.502 468.072C667.843 461.236 672.057 450.844 672.372 439.7C672.685 428.555 665.765 414.451 655.958 408.969C646.155 403.487 645.393 408.918 645.393 408.918Z" fill="black" stroke="black" stroke-width="5" stroke-miterlimit="10"/>
<path d="M555.904 443.191C546.303 452.793 544.829 464.479 550.692 474.739C559.469 490.1 573.876 492.013 573.876 492.013" stroke="black" stroke-width="5" stroke-miterlimit="10"/>
<path d="M456.328 566.909C451.94 569.105 445.355 573.494 445.355 573.494" stroke="black" stroke-width="5" stroke-miterlimit="10"/>
<path d="M109.945 698.048C114.094 707.36 124.994 719.305 124.994 719.305" stroke="black" stroke-width="5" stroke-miterlimit="10"/>
</svg>
